img/svg-poison.svg

<svg width="16" height="16" viewBox="0 0 16 16" fill="none" xmlns="http://www.w3.org/2000/svg">
<path fill-rule="evenodd" clip-rule="evenodd" d="M13.3694 12.2953C14.9851 11.0034 16 9.13675 16 7.06094C16 3.16128 12.4183 0 8 0C3.58172 0 0 3.16128 0 7.06094C0 9.06181 0.942928 10.8683 2.45798 12.1532C2.36616 12.4702 2.31579 12.815 2.31579 13.1756C2.31579 14.7355 3.25834 16 4.42106 16C5.17656 16 5.83913 15.4661 6.21053 14.6642C6.58194 15.4661 7.2445 16 8 16C8.68869 16 9.30013 15.5564 9.68422 14.8705C10.0683 15.5564 10.6798 16 11.3684 16C12.5311 16 13.4737 14.7355 13.4737 13.1756C13.4737 12.8682 13.4371 12.5723 13.3694 12.2953ZM12.6316 7.20097C12.6316 9.18078 10.5108 10.7858 7.89475 10.7858C5.27866 10.7858 3.15791 9.18078 3.15791 7.20097C3.15791 5.22116 5.27866 3.61619 7.89475 3.61619C10.5108 3.61619 12.6316 5.22116 12.6316 7.20097Z" fill="#AC6ACA"/>
</svg>

<svg width="16" height="16" fill="none" xmlns="http://www.w3.org/2000/svg"><path fill-rule="evenodd" clip-rule="evenodd" d="M13.37 12.295C14.984 11.003 16 9.137 16 7.061 16 3.16 12.418 0 8 0S0 3.161 0 7.06c0 2.002.943 3.808 2.458 5.093a3.68 3.68 0 0 0-.142 1.023c0 1.56.942 2.824 2.105 2.824.756 0 1.418-.534 1.79-1.336C6.58 15.466 7.245 16 8 16c.689 0 1.3-.444 1.684-1.13.384.686.996 1.13 1.684 1.13 1.163 0 2.106-1.264 2.106-2.824 0-.308-.037-.604-.105-.88Zm-.738-5.094c0 1.98-2.121 3.585-4.737 3.585S3.158 9.18 3.158 7.2s2.12-3.585 4.737-3.585c2.616 0 4.737 1.605 4.737 3.585Z" fill="#AC6ACA"/></svg>
